static/icons/Grandhouse.svg

<svg height="50" viewBox="0 0 13.229166 13.229167" width="50" xmlns="http://www.w3.org/2000/svg"><path d="m25.03125 1.6171875c-7.155249 5.2822678-29.7102205 24.6386715-20.8164062 24.6386715h5.7578124v21.111329h30.0585938v-21.111329h5.978516c8.588171-.256516-14.202076-19.3564037-20.978516-24.6386715zm-.017578 15.4667965 3.283203 3.16211 4.509766-.648438.796875 4.486328 4.03125 2.128907-1.992188 4.097656 2.011719 4.089844-4.021485 2.144531-.779296 4.490234-4.513672-.626953-3.267578 3.173828-3.283204-3.160156-4.511718.648437-.796875-4.488281-4.029297-2.125 1.992187-4.099609-2.009765-4.089844 4.019531-2.146484.779297-4.490235 4.511719.628907zm.029297 3.677735a9.5718891 9.5718891 0 0 0 -9.572266 9.572265 9.5718891 9.5718891 0 0 0 9.572266 9.572266 9.5718891 9.5718891 0 0 0 9.572265-9.572266 9.5718891 9.5718891 0 0 0 -9.572265-9.572265z" fill="#5e894f" opacity=".99" transform="scale(.26458333)"/></svg>

<?xml version="1.0" encoding="UTF-8" standalone="no"?>
<svg
   xmlns:dc="http://purl.org/dc/elements/1.1/"
   xmlns:cc="http://creativecommons.org/ns#"
   xmlns:rdf="http://www.w3.org/1999/02/22-rdf-syntax-ns#"
   xmlns:svg="http://www.w3.org/2000/svg"
   xmlns="http://www.w3.org/2000/svg"
   xmlns:sodipodi="http://sodipodi.sourceforge.net/DTD/sodipodi-0.dtd"
   xmlns:inkscape="http://www.inkscape.org/namespaces/inkscape"
   width="50"
   height="50"
   viewBox="0 0 13.229166 13.229167"
   version="1.1"
   id="svg1579"
   sodipodi:docname="Grandhouse.svg"
   inkscape:version="1.0.1 (3bc2e813f5, 2020-09-07)">
  <defs
     id="defs1573">
    <inkscape:path-effect
       effect="mirror_symmetry"
       start_point="-15.691712,-45.362002"
       end_point="-15.691712,4.437998"
       center_point="-15.691712,-20.462002"
       id="path-effect7365"
       is_visible="true"
       mode="free"
       discard_orig_path="false"
       fuse_paths="true"
       oposite_fuse="false" />
    <inkscape:path-effect
       effect="mirror_symmetry"
       start_point="275.14301,98.12006"
       end_point="275.14301,350.07326"
       center_point="275.14301,224.09666"
       id="path-effect4547-0"
       is_visible="true"
       mode="free"
       discard_orig_path="false"
       fuse_paths="true"
       oposite_fuse="false" />
    <inkscape:path-effect
       effect="mirror_symmetry"
       start_point="274.67636,240.21573"
       end_point="274.67636,418.88419"
       center_point="274.67636,329.54996"
       id="path-effect4551-7"
       is_visible="true"
       mode="free"
       discard_orig_path="false"
       fuse_paths="false"
       oposite_fuse="false" />
    <inkscape:path-effect
       effect="mirror_symmetry"
       start_point="273.50283,331.92091"
       end_point="273.50283,477.30227"
       center_point="273.50283,404.61159"
       id="path-effect4557-0"
       is_visible="true"
       mode="free"
       discard_orig_path="false"
       fuse_paths="false"
       oposite_fuse="false" />
    <inkscape:path-effect
       effect="mirror_symmetry"
       start_point="315.71788,90.192596"
       end_point="315.71788,96.192596"
       center_point="315.71788,93.192596"
       id="path-effect4669"
       is_visible="true"
       mode="free"
       discard_orig_path="false"
       fuse_paths="false"
       oposite_fuse="false" />
    <inkscape:path-effect
       oposite_fuse="false"
       fuse_paths="false"
       discard_orig_path="false"
       mode="free"
       is_visible="true"
       id="path-effect4802"
       center_point="316.91112,93.060013"
       end_point="316.91112,96.060013"
       start_point="316.91112,90.060013"
       effect="mirror_symmetry" />
  </defs>
  <sodipodi:namedview
     id="base"
     pagecolor="#ffffff"
     bordercolor="#666666"
     borderopacity="1.0"
     inkscape:pageopacity="0.0"
     inkscape:pageshadow="2"
     inkscape:zoom="5.6"
     inkscape:cx="52.475439"
     inkscape:cy="-34.284892"
     inkscape:document-units="px"
     inkscape:current-layer="layer1"
     showgrid="false"
     units="px"
     showguides="true"
     inkscape:window-width="3840"
     inkscape:window-height="2050"
     inkscape:window-x="-12"
     inkscape:window-y="-12"
     inkscape:window-maximized="1"
     inkscape:lockguides="true"
     inkscape:document-rotation="0" />
  <metadata
     id="metadata1576">
    <rdf:RDF>
      <cc:Work
         rdf:about="">
        <dc:format>image/svg+xml</dc:format>
        <dc:type
           rdf:resource="http://purl.org/dc/dcmitype/StillImage" />
        <dc:title></dc:title>
      </cc:Work>
    </rdf:RDF>
  </metadata>
  <g
     inkscape:label="Layer 1"
     inkscape:groupmode="layer"
     id="layer1"
     transform="translate(0,-283.77082)"
     style="opacity:0.98999999">
    <path
       style="opacity:1;fill:#5e894f;fill-opacity:1;stroke:none;stroke-width:3.34786987;stroke-linecap:square;stroke-linejoin:miter;stroke-miterlimit:10;stroke-dasharray:none;stroke-opacity:1;paint-order:normal"
       d="M 25.03125 1.6171875 C 17.876001 6.8994553 -4.6789705 26.255859 4.2148438 26.255859 L 9.9726562 26.255859 L 9.9726562 47.367188 L 40.03125 47.367188 L 40.03125 26.255859 L 46.009766 26.255859 C 54.597937 25.999343 31.80769 6.8994553 25.03125 1.6171875 z M 25.013672 17.083984 L 28.296875 20.246094 L 32.806641 19.597656 L 33.603516 24.083984 L 37.634766 26.212891 L 35.642578 30.310547 L 37.654297 34.400391 L 33.632812 36.544922 L 32.853516 41.035156 L 28.339844 40.408203 L 25.072266 43.582031 L 21.789062 40.421875 L 17.277344 41.070312 L 16.480469 36.582031 L 12.451172 34.457031 L 14.443359 30.357422 L 12.433594 26.267578 L 16.453125 24.121094 L 17.232422 19.630859 L 21.744141 20.259766 L 25.013672 17.083984 z M 25.042969 20.761719 A 9.5718891 9.5718891 0 0 0 15.470703 30.333984 A 9.5718891 9.5718891 0 0 0 25.042969 39.90625 A 9.5718891 9.5718891 0 0 0 34.615234 30.333984 A 9.5718891 9.5718891 0 0 0 25.042969 20.761719 z "
       transform="matrix(0.26458333,0,0,0.26458333,0,283.77082)"
       id="rect7553" />
  </g>
</svg>
